icons/logTypes/archived.svg

<?xml version="1.0" encoding="UTF-8"?><svg id="Ebene_2" xmlns="http://www.w3.org/2000/svg" viewBox="0 0 24 30"><defs><style>.cls-1{fill:#9d9d9e;}</style></defs><g id="Ebene_1-2"><g id="Ebene_2-2"><g id="Ebene_2-2"><path class="cls-1" d="M0,28c0,1.105,.895,2,2,2H22c1.105,0,2-.895,2-2V15.35H0v12.65Zm6.76-7.14h2v1.64h6.48v-1.64h2v1.72c0,1.06-.86,1.92-1.92,1.92h-6.64c-1.06,0-1.92-.86-1.92-1.92h0v-1.72ZM22,0H2C.895,0,0,.895,0,2V14.35H24V2c0-1.105-.895-2-2-2Zm-4.76,7.08c-.005,1.058-.862,1.915-1.92,1.92h-6.64c-1.058-.005-1.915-.862-1.92-1.92v-1.73h2v1.65h6.48v-1.65h2v1.73Z"/></g></g></g></svg>

<svg xmlns="http://www.w3.org/2000/svg" viewBox="0 0 24 30"><path d="M0 28a2 2 0 0 0 2 2h20a2 2 0 0 0 2-2V15.35H0V28Zm6.76-7.14h2v1.64h6.48v-1.64h2v1.72c0 1.06-.86 1.92-1.92 1.92H8.68a1.92 1.92 0 0 1-1.92-1.92v-1.72ZM22 0H2a2 2 0 0 0-2 2v12.35h24V2a2 2 0 0 0-2-2Zm-4.76 7.08A1.93 1.93 0 0 1 15.32 9H8.68a1.93 1.93 0 0 1-1.92-1.92V5.35h2V7h6.48V5.35h2v1.73Z" style="fill:#9d9d9e"/></svg>
